icon_installer/data/icons/scalable/actions/show-money-clip-symbolic.svg

<?xml version="1.0" encoding="UTF-8"?>
<svg height="16px" viewBox="0 0 16 16" width="16px" xmlns="http://www.w3.org/2000/svg">
    <path d="m 3 1 c -1.644531 0 -3 1.355469 -3 3 v 9.5 c 0 1.386719 1.113281 2.5 2.5 2.5 h 10.5 c 1.214844 0 2 -1 1.949219 -2 h -6.949219 c -1.109375 0 -2 -0.890625 -2 -2 v -4 c 0 -1.109375 0.890625 -2 2 -2 h 6.949219 c 0.050781 -1 -0.734375 -2 -1.949219 -2 h -10.5 c -0.277344 0 -0.5 -0.222656 -0.5 -0.5 s 0.222656 -0.5 0.5 -0.5 h 10.5 c 0 -2 -2 -2 -2 -2 z m 5 6 c -0.554688 0 -1 0.445312 -1 1 v 4 c 0 0.554688 0.445312 1 1 1 h 8 v -6 z m 2 2 c 0.550781 0 1 0.449219 1 1 s -0.449219 1 -1 1 s -1 -0.449219 -1 -1 s 0.449219 -1 1 -1 z m 0 0" fill="#222222"/>
</svg>

<svg xmlns="http://www.w3.org/2000/svg" width="16" height="16"><path fill="#222" d="M3 1C1.355 1 0 2.355 0 4v9.5C0 14.887 1.113 16 2.5 16H13c1.215 0 2-1 1.95-2H8c-1.11 0-2-.89-2-2V8c0-1.11.89-2 2-2h6.95C15 5 14.214 4 13 4H2.5a.499.499 0 1 1 0-1H13c0-2-2-2-2-2zm5 6c-.555 0-1 .445-1 1v4c0 .555.445 1 1 1h8V7zm2 2c.55 0 1 .45 1 1s-.45 1-1 1-1-.45-1-1 .45-1 1-1zm0 0"/></svg>
